components/Common/Svg/svgs/book.svg

<svg width="40" height="40" viewBox="0 0 40 40" fill="none" xmlns="http://www.w3.org/2000/svg">
<path fill-rule="evenodd" clip-rule="evenodd" d="M5 7.75C4.40326 7.75 3.83097 7.98705 3.40901 8.40901C2.98705 8.83097 2.75 9.40326 2.75 10V30C2.75 30.5967 2.98705 31.169 3.40901 31.591C3.83097 32.0129 4.40326 32.25 5 32.25H15C16.0609 32.25 17.0783 32.6714 17.8284 33.4216C18.5786 34.1717 19 35.1891 19 36.25C19 36.8023 19.4477 37.25 20 37.25C20.5523 37.25 21 36.8023 21 36.25C21 35.1891 21.4214 34.1717 22.1716 33.4216C22.9217 32.6714 23.9391 32.25 25 32.25H35C35.5967 32.25 36.169 32.013 36.591 31.591C37.013 31.169 37.25 30.5967 37.25 30V10C37.25 9.40326 37.0129 8.83097 36.591 8.40901C36.169 7.98705 35.5967 7.75 35 7.75H25C23.4087 7.75 21.8826 8.38214 20.7574 9.50736C20.4726 9.79215 20.2194 10.1026 20 10.4333C19.7806 10.1026 19.5274 9.79215 19.2426 9.50736C18.1174 8.38214 16.5913 7.75 15 7.75H5ZM21 13.75V31.7779C22.097 30.7966 23.5203 30.25 25 30.25H35C35.0663 30.25 35.1299 30.2237 35.1768 30.1768C35.2237 30.1299 35.25 30.0663 35.25 30V10C35.25 9.93369 35.2237 9.87011 35.1768 9.82322C35.1299 9.77634 35.0663 9.75 35 9.75H25C23.9391 9.75 22.9217 10.1714 22.1716 10.9216C21.4214 11.6717 21 12.6891 21 13.75ZM19 13.75C19 12.6891 18.5786 11.6717 17.8284 10.9216C17.0783 10.1714 16.0609 9.75 15 9.75H5C4.9337 9.75 4.87011 9.77634 4.82322 9.82322C4.77634 9.87011 4.75 9.9337 4.75 10V30C4.75 30.0663 4.77634 30.1299 4.82322 30.1768C4.87011 30.2237 4.93369 30.25 5 30.25H15C16.4797 30.25 17.903 30.7966 19 31.7779V13.75Z" fill="#161616"/>
</svg>

<svg width="40" height="40" viewBox="0 0 40 40" fill="none" xmlns="http://www.w3.org/2000/svg"><path fill-rule="evenodd" clip-rule="evenodd" d="M5 7.75A2.25 2.25 0 0 0 2.75 10v20A2.25 2.25 0 0 0 5 32.25h10a4 4 0 0 1 4 4 1 1 0 1 0 2 0 4 4 0 0 1 4-4h10A2.25 2.25 0 0 0 37.25 30V10A2.25 2.25 0 0 0 35 7.75H25a6 6 0 0 0-5 2.683 6 6 0 0 0-5-2.683H5Zm16 6v18.028a6 6 0 0 1 4-1.528h10a.25.25 0 0 0 .25-.25V10a.25.25 0 0 0-.25-.25H25a4 4 0 0 0-4 4Zm-2 0a4 4 0 0 0-4-4H5a.25.25 0 0 0-.25.25v20a.25.25 0 0 0 .25.25h10a6 6 0 0 1 4 1.528V13.75Z" fill="#161616"/></svg>
